SVG_Azure_Grouped/Workload/File Server.svg

<?xml version="1.0" encoding="UTF-8" standalone="no"?>
<!-- Generated by Microsoft Visio, SVG Export File Server.svg Page-1 -->

<svg
   xmlns:dc="http://purl.org/dc/elements/1.1/"
   xmlns:cc="http://creativecommons.org/ns#"
   xmlns:rdf="http://www.w3.org/1999/02/22-rdf-syntax-ns#"
   xmlns:svg="http://www.w3.org/2000/svg"
   xmlns="http://www.w3.org/2000/svg"
   xmlns:sodipodi="http://sodipodi.sourceforge.net/DTD/sodipodi-0.dtd"
   xmlns:inkscape="http://www.inkscape.org/namespaces/inkscape"
   width="0.70861155in"
   height="0.78746712in"
   viewBox="0 0 51.020132 56.697616"
   xml:space="preserve"
   class="st7"
   version="1.1"
   id="svg115"
   sodipodi:docname="File Server.svg"
   style="font-size:12px;overflow:visible;color-interpolation-filters:sRGB;fill:none;fill-rule:evenodd;stroke-linecap:square;stroke-miterlimit:3"
   inkscape:version="0.92.5 (2060ec1f9f, 2020-04-08)"><metadata
   id="metadata119"><rdf:RDF><cc:Work
       rdf:about=""><dc:format>image/svg+xml</dc:format><dc:type
         rdf:resource="http://purl.org/dc/dcmitype/StillImage" /></cc:Work></rdf:RDF></metadata><sodipodi:namedview
   pagecolor="#ffffff"
   bordercolor="#666666"
   borderopacity="1"
   objecttolerance="10"
   gridtolerance="10"
   guidetolerance="10"
   inkscape:pageopacity="0"
   inkscape:pageshadow="2"
   inkscape:window-width="640"
   inkscape:window-height="480"
   id="namedview117"
   showgrid="false"
   inkscape:zoom="1.3789016"
   inkscape:cx="32.709585"
   inkscape:cy="37.968159"
   inkscape:window-x="0"
   inkscape:window-y="0"
   inkscape:window-maximized="0"
   inkscape:current-layer="svg115" />
	<style
   type="text/css"
   id="style2">
	<![CDATA[
		.st1 {fill:url(#grad0-11);stroke:none;stroke-linecap:butt;stroke-width:35.9597}
		.st2 {fill:#003067;stroke:none;stroke-linecap:butt;stroke-width:35.9597}
		.st3 {fill:#50e6ff;stroke:none;stroke-linecap:butt;stroke-width:35.9597}
		.st4 {fill:#0078d4;stroke:none;stroke-linecap:butt;stroke-width:34}
		.st5 {fill:#ffffff;stroke:none;stroke-linecap:butt;stroke-width:34}
		.st6 {fill:url(#grad0-35);stroke:none;stroke-linecap:butt;stroke-width:34}
		.st7 {fill:none;fill-rule:evenodd;font-size:12px;overflow:visible;stroke-linecap:square;stroke-miterlimit:3}
	]]>
	</style>

	<defs
   id="Patterns_And_Gradients">
		<linearGradient
   id="grad0-11"
   x1="-0.00030529925"
   y1="55.47469"
   x2="43.534499"
   y2="55.47469"
   gradientTransform="scale(0.77134228,1.2964413)"
   gradientUnits="userSpaceOnUse">
			<stop
   offset="0"
   stop-color="#949494"
   stop-opacity="1"
   id="stop4" />
			<stop
   offset="0.53"
   stop-color="#a2a2a2"
   stop-opacity="1"
   id="stop6" />
			<stop
   offset="1"
   stop-color="#b3b3b3"
   stop-opacity="1"
   id="stop8" />
		</linearGradient>
		<linearGradient
   id="grad0-35"
   x1="-0.0019985109"
   y1="122.18698"
   x2="29.698534"
   y2="122.18698"
   gradientTransform="scale(1.1832234,0.84514895)"
   gradientUnits="userSpaceOnUse">
			<stop
   offset="0"
   stop-color="#32d4f5"
   stop-opacity="1"
   id="stop11" />
			<stop
   offset="0.23"
   stop-color="#31d0f1"
   stop-opacity="1"
   id="stop13" />
			<stop
   offset="0.46"
   stop-color="#2cc3e6"
   stop-opacity="1"
   id="stop15" />
			<stop
   offset="0.7"
   stop-color="#25afd4"
   stop-opacity="1"
   id="stop17" />
			<stop
   offset="0.94"
   stop-color="#1c92ba"
   stop-opacity="1"
   id="stop19" />
			<stop
   offset="1"
   stop-color="#198ab3"
   stop-opacity="1"
   id="stop21" />
		</linearGradient>
	</defs>
	<g
   id="g113"
   transform="translate(-35.959765,-35.96008)">
		<title
   id="title25">Page-1</title>
		<g
   id="group15225-1"
   transform="translate(35.96,-35.7099)">
			<title
   id="title27">File Server.15225</title>
			<g
   id="group15226-2">
				<title
   id="title29">Page-1</title>
				<g
   id="group15227-3">
					<title
   id="title31">Sheet.15227</title>
					<g
   id="group15228-4"
   transform="translate(0,-0.249852)">
						<title
   id="title33">Sheet.15228</title>
						<g
   id="group15229-5">
							<title
   id="title35">Icon-databases-136.149</title>
							<g
   id="group15230-6">
								<title
   id="title37">path4-5</title>
								<g
   id="group15231-7">
									<title
   id="title39">Sheet.15231</title>
									<g
   id="shape15232-8">
										<title
   id="title41">Sheet.15232</title>
										<path
   d="m 33.58,126.44 a 1.98343,1.9582 -180 0 1 -1.94,1.92 H 1.95 A 1.94924,1.92443 -180 0 1 0,126.44 v -52.6 a 1.91504,1.89067 -180 0 1 1.95,-1.92 h 29.69 a 1.94924,1.92443 -180 0 1 1.94,1.92 z"
   class="st1"
   id="path43"
   inkscape:connector-curvature="0"
   style="fill:url(#grad0-11);stroke:none;stroke-width:35.95970154;stroke-linecap:butt" />
									</g>
								</g>
							</g>
							<g
   id="group15233-12"
   transform="translate(4.92439,-33.0529)">
								<title
   id="title48">path6-7</title>
								<g
   id="group15234-13">
									<title
   id="title50">Sheet.15234</title>
									<g
   id="shape15235-14">
										<title
   id="title52">Sheet.15235</title>
										<path
   d="m 0,124.76 a 3.6591,3.61254 -180 0 1 3.63,-3.59 h 16.75 a 3.6591,3.61254 -180 0 1 3.76,3.59 3.6591,3.61254 -180 0 1 -3.76,3.6 H 3.63 A 3.6591,3.61254 -180 0 1 0,124.76 Z m 0,-10.67 a 3.6591,3.61254 -180 0 1 3.63,-3.61 h 16.75 a 3.6591,3.61254 -180 0 1 3.76,3.61 3.6591,3.61254 -180 0 1 -3.76,3.58 H 3.63 A 3.6591,3.61254 -180 0 1 0,114.09 Z"
   class="st2"
   id="path54"
   inkscape:connector-curvature="0"
   style="fill:#003067;stroke:none;stroke-width:35.95970154;stroke-linecap:butt" />
									</g>
								</g>
							</g>
							<g
   id="group15236-16"
   transform="translate(6.29227,-44.8988)">
								<title
   id="title59">circle8-5</title>
								<g
   id="group15237-17">
									<title
   id="title61">Sheet.15237</title>
									<g
   id="shape15238-18">
										<title
   id="title63">Sheet.15238</title>
										<ellipse
   cx="2.4621899"
   cy="125.932"
   rx="2.4621899"
   ry="2.43086"
   class="st3"
   id="ellipse65"
   style="fill:#50e6ff;stroke:none;stroke-width:35.95970154;stroke-linecap:butt" />
									</g>
								</g>
							</g>
							<g
   id="group15239-20"
   transform="translate(6.29227,-34.23)">
								<title
   id="title70">circle10-2</title>
								<g
   id="group15240-21">
									<title
   id="title72">Sheet.15240</title>
									<g
   id="shape15241-22">
										<title
   id="title74">Sheet.15241</title>
										<ellipse
   cx="2.4621899"
   cy="125.932"
   rx="2.4621899"
   ry="2.43086"
   class="st3"
   id="ellipse76"
   style="fill:#50e6ff;stroke:none;stroke-width:35.95970154;stroke-linecap:butt" />
									</g>
								</g>
							</g>
						</g>
					</g>
					<g
   id="group15242-24"
   transform="translate(15.8799)">
						<title
   id="title83">Sheet.15242</title>
						<g
   id="group15243-25"
   transform="translate(5.61804,-21.6045)">
							<title
   id="title85">path10</title>
							<g
   id="shape15244-26">
								<title
   id="title87">Sheet.15244</title>
								<path
   d="M 23.13,124.1 3.89,121.37 H 3.51 a 2.78234,2.73062 0 0 0 -2.79,2.38 L 0,128.36 h 25.43 v -1.11 a 2.78234,2.73062 0 0 0 -2.3,-3.15 z"
   class="st4"
   id="path89"
   inkscape:connector-curvature="0"
   style="fill:#0078d4;stroke:none;stroke-width:34;stroke-linecap:butt" />
							</g>
						</g>
						<g
   id="group15245-28"
   transform="translate(6.80053,-21.7001)">
							<title
   id="title93">path12</title>
							<g
   id="shape15246-29">
								<title
   id="title95">Sheet.15246</title>
								<path
   d="M 21.71,125.28 2.5,122.55 H 2.25 a 1.61376,1.58376 0 0 0 -1.58,1.36 L 0,128.36 h 22.87 l 0.19,-1.28 a 1.61376,1.58376 0 0 0 -1.35,-1.8 z"
   class="st5"
   id="path97"
   inkscape:connector-curvature="0"
   style="fill:#ffffff;stroke:none;stroke-width:34;stroke-linecap:butt" />
							</g>
						</g>
						<g
   id="group15247-31">
							<title
   id="title101">path14.2825</title>
							<g
   id="shape15248-32">
								<title
   id="title103">Sheet.15248</title>
								<path
   d="m 0.72,103.27 h 16.83 a 0.91817,0.901107 -180 0 1 0.58429,0.24576 L 20.93,106.24 a 0.806877,0.791882 0 0 0 0.58429,0.24576 L 34.3,106.48 a 0.834701,0.819187 -180 0 1 0.834701,0.79188 L 35.14,127.57 a 0.834701,0.819187 -180 0 1 -0.834701,0.79188 L 0.92,128.36 A 0.806877,0.791882 -180 0 1 0.00183,127.56812 L 0,104.14 a 0.834701,0.819187 -180 0 1 0.723407,-0.8738 z"
   class="st6"
   id="path105"
   inkscape:connector-curvature="0"
   style="fill:url(#grad0-35);stroke:none;stroke-width:34;stroke-linecap:butt" />
							</g>
						</g>
					</g>
				</g>
			</g>
		</g>
	</g>
</svg>

<?xml version="1.0" encoding="UTF-8" standalone="no"?>
<!DOCTYPE svg PUBLIC "-//W3C//DTD SVG 1.1//EN" "http://www.w3.org/Graphics/SVG/1.1/DTD/svg11.dtd">
<!-- Generated by Microsoft Visio, SVG Export File Server.svg Page-1 -->
<svg xmlns="http://www.w3.org/2000/svg" xmlns:xlink="http://www.w3.org/1999/xlink" xmlns:ev="http://www.w3.org/2001/xml-events"
		width="1.68033in" height="1.78282in" viewBox="0 0 120.984 128.363" xml:space="preserve" color-interpolation-filters="sRGB"
		class="st7">
	<style type="text/css">
	<![CDATA[
		.st1 {fill:url(#grad0-11);stroke:none;stroke-linecap:butt;stroke-width:35.9597}
		.st2 {fill:#003067;stroke:none;stroke-linecap:butt;stroke-width:35.9597}
		.st3 {fill:#50e6ff;stroke:none;stroke-linecap:butt;stroke-width:35.9597}
		.st4 {fill:#0078d4;stroke:none;stroke-linecap:butt;stroke-width:34}
		.st5 {fill:#ffffff;stroke:none;stroke-linecap:butt;stroke-width:34}
		.st6 {fill:url(#grad0-35);stroke:none;stroke-linecap:butt;stroke-width:34}
		.st7 {fill:none;fill-rule:evenodd;font-size:12px;overflow:visible;stroke-linecap:square;stroke-miterlimit:3}
	]]>
	</style>

	<defs id="Patterns_And_Gradients">
		<linearGradient id="grad0-11" x1="0" y1="0" x2="1" y2="0" gradientTransform="rotate(-90 0.5 0.5)">
			<stop offset="0" stop-color="#949494" stop-opacity="1"/>
			<stop offset="0.53" stop-color="#a2a2a2" stop-opacity="1"/>
			<stop offset="1" stop-color="#b3b3b3" stop-opacity="1"/>
		</linearGradient>
		<linearGradient id="grad0-35" x1="0" y1="0" x2="1" y2="0" gradientTransform="rotate(88.955156399999 0.5 0.5)">
			<stop offset="0" stop-color="#32d4f5" stop-opacity="1"/>
			<stop offset="0.23" stop-color="#31d0f1" stop-opacity="1"/>
			<stop offset="0.46" stop-color="#2cc3e6" stop-opacity="1"/>
			<stop offset="0.7" stop-color="#25afd4" stop-opacity="1"/>
			<stop offset="0.94" stop-color="#1c92ba" stop-opacity="1"/>
			<stop offset="1" stop-color="#198ab3" stop-opacity="1"/>
		</linearGradient>
	</defs>
	<g>
		<title>Page-1</title>
		<g id="group14842-1" transform="translate(35.96,-35.7099)">
			<title>File Server.14842</title>
			<g id="group14843-2">
				<title>Page-1</title>
				<g id="group14844-3">
					<title>Sheet.14844</title>
					<g id="group14845-4" transform="translate(-2.51799E-13,-0.249852)">
						<title>Sheet.14845</title>
						<g id="group14846-5">
							<title>Icon-databases-136.149</title>
							<g id="group14847-6">
								<title>path4-5</title>
								<g id="group14848-7">
									<title>Sheet.14848</title>
									<g id="shape14849-8">
										<title>Sheet.14849</title>
										<path d="M33.58 126.44 A1.98343 1.9582 -180 0 1 31.64 128.36 L1.95 128.36 A1.94924 1.92443
													 -180 0 1 0 126.44 L0 73.84 A1.91504 1.89067 -180 0 1 1.95 71.92 L31.64 71.92
													 A1.94924 1.92443 -180 0 1 33.58 73.84 L33.58 126.44 Z" class="st1"/>
									</g>
								</g>
							</g>
							<g id="group14850-12" transform="translate(4.92439,-33.0529)">
								<title>path6-7</title>
								<g id="group14851-13">
									<title>Sheet.14851</title>
									<g id="shape14852-14">
										<title>Sheet.14852</title>
										<path d="M0 124.76 A3.6591 3.61254 -180 0 1 3.63 121.17 L20.38 121.17 A3.6591 3.61254 -180
													 0 1 24.14 124.76 A3.6591 3.61254 -180 0 1 20.38 128.36 L3.63 128.36 A3.6591
													 3.61254 -180 0 1 -0 124.76 ZM0 114.09 A3.6591 3.61254 -180 0 1 3.63 110.48 L20.38
													 110.48 A3.6591 3.61254 -180 0 1 24.14 114.09 A3.6591 3.61254 -180 0 1 20.38
													 117.67 L3.63 117.67 A3.6591 3.61254 -180 0 1 -0 114.09 Z" class="st2"/>
									</g>
								</g>
							</g>
							<g id="group14853-16" transform="translate(6.29227,-44.8988)">
								<title>circle8-5</title>
								<g id="group14854-17">
									<title>Sheet.14854</title>
									<g id="shape14855-18">
										<title>Sheet.14855</title>
										<ellipse cx="2.46219" cy="125.932" rx="2.46219" ry="2.43086" class="st3"/>
									</g>
								</g>
							</g>
							<g id="group14856-20" transform="translate(6.29227,-34.23)">
								<title>circle10-2</title>
								<g id="group14857-21">
									<title>Sheet.14857</title>
									<g id="shape14858-22">
										<title>Sheet.14858</title>
										<ellipse cx="2.46219" cy="125.932" rx="2.46219" ry="2.43086" class="st3"/>
									</g>
								</g>
							</g>
						</g>
					</g>
					<g id="group14859-24" transform="translate(15.8799,3.12639E-13)">
						<title>Sheet.14859</title>
						<g id="group14860-25" transform="translate(5.61804,-21.6045)">
							<title>path10</title>
							<g id="shape14861-26">
								<title>Sheet.14861</title>
								<path d="M23.13 124.1 L3.89 121.37 L3.51 121.37 A2.78234 2.73062 0 0 0 0.72 123.75 L0 128.36 L25.43
											 128.36 L25.43 127.25 A2.78234 2.73062 0 0 0 23.13 124.1 Z" class="st4"/>
							</g>
						</g>
						<g id="group14862-28" transform="translate(6.80053,-21.7001)">
							<title>path12</title>
							<g id="shape14863-29">
								<title>Sheet.14863</title>
								<path d="M21.71 125.28 L2.5 122.55 L2.25 122.55 A1.61376 1.58376 0 0 0 0.67 123.91 L0 128.36 L22.87
											 128.36 L23.06 127.08 A1.61376 1.58376 0 0 0 21.71 125.28 Z" class="st5"/>
							</g>
						</g>
						<g id="group14864-31">
							<title>path14.2825</title>
							<g id="shape14865-32">
								<title>Sheet.14865</title>
								<path d="M0.72 103.27 L17.55 103.27 a0.91817 0.901107 -180 0 1 0.58429 0.245756 L20.93 106.24 a0.806877
											 0.791882 0 0 0 0.58429 0.245756 L34.3 106.48 a0.834701 0.819187 -180 0 1 0.834701 0.791882
											 L35.14 127.57 a0.834701 0.819187 -180 0 1 -0.834701 0.791882 L0.92 128.36 a0.806877
											 0.791882 -180 0 1 -0.91817 -0.791882 L0 104.14 a0.834701 0.819187 -180 0 1 0.723407
											 -0.8738 L0.72 103.27 Z" class="st6"/>
							</g>
						</g>
					</g>
				</g>
			</g>
		</g>
	</g>
</svg>
